X: 43560
T: Young Brown Cow
R: waltz
M: 3/4
K: Dmajor
E3 F E D|E2 F2 A2|B3 c B A|F3 A A F|
E3 F E D|E2 F2 A2|D3 E D C|B,6|

